Dominus_Dark_Funeral/22/apps/application-x-clementine.svg

<svg xmlns="http://www.w3.org/2000/svg" width="24" height="24" viewBox="0 0 6.35 6.35"><defs><linearGradient id="a"><stop offset="0"/><stop offset="1" stop-opacity="0"/></linearGradient></defs><path d="M1.15.5a1.46 1.46 0 0 0-.06.03c-.03.06-.07.13-.1.23-.08.28-.1.66-.08 1.13a4.76 4.76 0 0 0 .67 1.85c.14.2.32.4.55.61a3.37 3.37 0 0 0 .77.44 5 5 0 0 0 1.92.27c.5-.05.88-.15 1.14-.29.07-.02.1-.07.15-.1-.15.3-.67.54-1.52.64a5.01 5.01 0 0 1-1.37-.12c-.32-.05-.73-.2-1.17-.49a2.98 2.98 0 0 1-1-1.26 4.7 4.7 0 0 1-.36-1.3C.62 1.27.79.7 1.09.54a1.46 1.46 0 0 0-.85 1.06c-.08.28-.1.66-.04 1.1a4.55 4.55 0 0 0 .36 1.27c.12.34.37.75.85 1.17a2.96 2.96 0 0 0 1.31.6 4.85 4.85 0 0 0 1.35.11c.46-.03.85-.12 1.13-.25.11-.07.27-.15.35-.23.34-.31.59-.56.63-.77C3.58 3.49 2.9 3.09 1.15.5zm-.06.03z" fill="#e6e6e6"/></svg>

<?xml version="1.0" encoding="UTF-8" standalone="no"?>
<svg
   xmlns:dc="http://purl.org/dc/elements/1.1/"
   xmlns:cc="http://creativecommons.org/ns#"
   xmlns:rdf="http://www.w3.org/1999/02/22-rdf-syntax-ns#"
   xmlns:svg="http://www.w3.org/2000/svg"
   xmlns="http://www.w3.org/2000/svg"
   xmlns:sodipodi="http://sodipodi.sourceforge.net/DTD/sodipodi-0.dtd"
   xmlns:inkscape="http://www.inkscape.org/namespaces/inkscape"
   width="24"
   height="24"
   viewBox="0 0 6.35 6.35"
   version="1.1"
   id="svg11"
   sodipodi:docname="application-x-clementine.svg"
   inkscape:version="0.92.4 (5da689c313, 2019-01-14)">
  <metadata
     id="metadata15">
    <rdf:RDF>
      <cc:Work
         rdf:about="">
        <dc:format>image/svg+xml</dc:format>
        <dc:type
           rdf:resource="http://purl.org/dc/dcmitype/StillImage" />
        <dc:title></dc:title>
      </cc:Work>
    </rdf:RDF>
  </metadata>
  <sodipodi:namedview
     pagecolor="#ffffff"
     bordercolor="#666666"
     borderopacity="1"
     objecttolerance="10"
     gridtolerance="10"
     guidetolerance="10"
     inkscape:pageopacity="0"
     inkscape:pageshadow="2"
     inkscape:window-width="1142"
     inkscape:window-height="480"
     id="namedview13"
     showgrid="false"
     inkscape:zoom="9.8333333"
     inkscape:cx="1.2711864"
     inkscape:cy="12"
     inkscape:window-x="0"
     inkscape:window-y="25"
     inkscape:window-maximized="0"
     inkscape:current-layer="svg11" />
  <defs
     id="defs7">
    <linearGradient
       id="a">
      <stop
         offset="0"
         id="stop2" />
      <stop
         offset="1"
         stop-opacity="0"
         id="stop4" />
    </linearGradient>
  </defs>
  <path
     d="M 1.15,0.5 A 1.46,1.46 0 0 0 1.09,0.53 C 1.06,0.59 1.02,0.66 0.99,0.76 0.91,1.04 0.89,1.42 0.91,1.89 a 4.76,4.76 0 0 0 0.67,1.85 c 0.14,0.2 0.32,0.4 0.55,0.61 A 3.37,3.37 0 0 0 2.9,4.79 5,5 0 0 0 4.82,5.06 C 5.32,5.01 5.7,4.91 5.96,4.77 6.03,4.75 6.06,4.7 6.11,4.67 5.96,4.97 5.44,5.21 4.59,5.31 A 5.01,5.01 0 0 1 3.22,5.19 C 2.9,5.14 2.49,4.99 2.05,4.7 A 2.98,2.98 0 0 1 1.05,3.44 4.7,4.7 0 0 1 0.69,2.14 C 0.62,1.27 0.79,0.7 1.09,0.54 A 1.46,1.46 0 0 0 0.24,1.6 C 0.16,1.88 0.14,2.26 0.2,2.7 a 4.55,4.55 0 0 0 0.36,1.27 c 0.12,0.34 0.37,0.75 0.85,1.17 a 2.96,2.96 0 0 0 1.31,0.6 4.85,4.85 0 0 0 1.35,0.11 C 4.53,5.82 4.92,5.73 5.2,5.6 5.31,5.53 5.47,5.45 5.55,5.37 5.89,5.06 6.14,4.81 6.18,4.6 3.58,3.49 2.9,3.09 1.15,0.5 Z M 1.09,0.53 Z"
     id="path9"
     inkscape:connector-curvature="0"
     style="fill:#e6e6e6" />
</svg>
